svg/error-database.svg

<?xml version="1.0" encoding="UTF-8"?>
<svg xmlns="http://www.w3.org/2000/svg" xmlns:xlink="http://www.w3.org/1999/xlink" width="32" height="32" viewBox="0 0 32 32">
<path fill-rule="nonzero" fill="rgb(0%, 0%, 0%)" fill-opacity="1" d="M 16 2 C 12.855469 2 9.957031 2.578125 7.808594 3.554688 C 5.75 4.488281 4 5.984375 4 8 C 4 10.015625 5.75 11.511719 7.808594 12.445312 C 9.957031 13.421875 12.855469 14 16 14 C 19.144531 14 22.042969 13.421875 24.191406 12.445312 C 26.25 11.511719 28 10.015625 28 8 C 28 5.984375 26.25 4.488281 24.191406 3.554688 C 22.042969 2.578125 19.144531 2 16 2 M 4 14 L 4 12.320312 C 4.914062 13.1875 6.007812 13.824219 6.980469 14.265625 C 9.445312 15.386719 12.636719 16 16 16 C 19.363281 16 22.554688 15.386719 25.019531 14.265625 C 25.992188 13.824219 27.085938 13.1875 28 12.320312 L 28 14 C 28 14.847656 27.691406 15.605469 27.179688 16.265625 C 23.515625 15.359375 19.671875 16.832031 17.546875 19.953125 C 17.03125 19.984375 16.515625 20 16 20 C 12.855469 20 9.957031 19.421875 7.808594 18.445312 C 5.75 17.511719 4 16.015625 4 14 M 16.515625 21.996094 L 16 22 C 12.636719 22 9.445312 21.386719 6.980469 20.265625 C 6.007812 19.824219 4.914062 19.1875 4 18.320312 L 4 20 C 4 22.015625 5.75 23.511719 7.808594 24.445312 C 9.957031 25.421875 12.855469 26 16 26 L 16.054688 26 C 15.90625 24.648438 16.0625 23.277344 16.515625 21.996094 M 16.511719 27.996094 L 16 28 C 12.636719 28 9.445312 27.386719 6.980469 26.265625 C 6.007812 25.824219 4.914062 25.1875 4 24.320312 L 4 26 C 4 28.015625 5.75 29.511719 7.808594 30.445312 C 9.957031 31.421875 12.855469 32 16 32 C 17.070312 32 18.117188 31.933594 19.109375 31.804688 C 17.929688 30.78125 17.03125 29.46875 16.511719 27.996094 M 32 25 C 32 28.867188 28.867188 32 25 32 C 21.132812 32 18 28.867188 18 25 C 18 21.132812 21.132812 18 25 18 C 28.867188 18 32 21.132812 32 25 M 25 21 C 24.449219 21 24 21.449219 24 22 L 24 25 C 24 25.550781 24.449219 26 25 26 C 25.550781 26 26 25.550781 26 25 L 26 22 C 26 21.449219 25.550781 21 25 21 M 25 29 C 25.550781 29 26 28.550781 26 28 C 26 27.449219 25.550781 27 25 27 C 24.449219 27 24 27.449219 24 28 C 24 28.550781 24.449219 29 25 29 "/>
</svg>

<svg role="img" viewBox="0 0 32 32" xmlns="http://www.w3.org/2000/svg"><path d="M16 2c-3.145 0-6.043.578-8.191 1.555C5.75 4.488 4 5.985 4 8s1.75 3.512 3.809 4.445C9.957 13.422 12.855 14 16 14s6.043-.578 8.191-1.555C26.25 11.512 28 10.015 28 8s-1.75-3.512-3.809-4.445C22.043 2.578 19.145 2 16 2M4 14v-1.68c.914.867 2.008 1.504 2.98 1.946C9.445 15.386 12.637 16 16 16s6.555-.613 9.02-1.734c.972-.442 2.066-1.078 2.98-1.946V14c0 .848-.309 1.605-.82 2.266a9.025 9.025 0 0 0-9.633 3.687Q16.774 20 16 20c-3.145 0-6.043-.578-8.191-1.555C5.75 17.512 4 16.015 4 14m12.516 7.996L16 22c-3.363 0-6.555-.613-9.02-1.734-.972-.442-2.066-1.078-2.98-1.946V20c0 2.016 1.75 3.512 3.809 4.445C9.957 25.422 12.855 26 16 26h.055a9.05 9.05 0 0 1 .46-4.004m-.003 6L16 28c-3.363 0-6.555-.613-9.02-1.734-.972-.442-2.066-1.078-2.98-1.946V26c0 2.016 1.75 3.512 3.809 4.445C9.957 31.422 12.855 32 16 32c1.07 0 2.117-.066 3.11-.195a9 9 0 0 1-2.598-3.809M32 25c0 3.867-3.133 7-7 7s-7-3.133-7-7 3.133-7 7-7 7 3.133 7 7m-7-4c-.55 0-1 .45-1 1v3c0 .55.45 1 1 1s1-.45 1-1v-3c0-.55-.45-1-1-1m0 8c.55 0 1-.45 1-1s-.45-1-1-1-1 .45-1 1 .45 1 1 1"/></svg>
